images_sukapura_svg/cmd/32/print.svg

<svg viewBox="0 0 32 32" xmlns="http://www.w3.org/2000/svg" xmlns:xlink="http://www.w3.org/1999/xlink"><linearGradient id="a" gradientUnits="userSpaceOnUse" x1="11" x2="11" y1="12" y2="21.5"><stop offset="0" stop-color="#fff"/><stop offset=".08333334" stop-color="#fff" stop-opacity=".055147"/><stop offset="1" stop-color="#fff" stop-opacity=".247059"/><stop offset="1" stop-color="#fff" stop-opacity=".481618"/></linearGradient><path d="m8 20v7h16v-7z" fill="#fff" fill-rule="evenodd"/><path d="m7 20v7.142578c0 .474857.3825649.857422.8574219.857422h16.2851561c.474857 0 .857422-.382565.857422-.857422v-7.142578h-1v7h-16v-7z" fill="#98989d"/><path d="m3.4726661 10.5c-.6282872 0-1.0014124.457459-1 1l.0273339 10.5c.00144.553998.446 1 1 1h25c.554 0 1.001442-.446002 1-1l-.02733-10.5c-.0014-.553998-.421822-1-1-1h-1.97267v3c0 .554-.446 1-1 1h-19c-.554 0-1-.446-1-1v-3z" fill="#8e8e93" stroke="#616165"/><path d="m7 9.000125c-.554 0-1 .446-1 1v1.999875c0 .554.446 1 1 1h18c.554 0 1-.446 1-1v-1.999875c0-.554-.446-1-1-1h-5-8z" fill="#0a84ff"/><path d="m7.8574219 4.000125c-.473825.0312909-.8574219.3825649-.8574219.8574219v5.1425781 1h1v-1-5h4 8 4v5 1h1v-1-5.1425781c0-.474857-.383597-.826131-.857422-.8574219h-4.142578-8z" fill="#98989d"/><path d="m8 5.000125v5 1h16v-1-5h-4-8z" fill="#fff" fill-rule="evenodd"/><path d="m26 20h2v1h-2z" fill="#fff"/><path d="m4 11.5c-.277 0-.5.223-.5.5v9.5c0 .277.223.5.5.5h24c.277 0 .5-.223.5-.5v-9.5c0-.277-.223-.5-.5-.5h-.5v3c0 .554-.446 1-1 1h-21c-.554 0-1-.446-1-1v-3z" fill="none" stroke="url(#a)" stroke-opacity=".658088"/></svg>

<?xml version="1.0" encoding="UTF-8" standalone="no"?>
<svg
   xmlns:dc="http://purl.org/dc/elements/1.1/"
   xmlns:cc="http://creativecommons.org/ns#"
   xmlns:rdf="http://www.w3.org/1999/02/22-rdf-syntax-ns#"
   xmlns:svg="http://www.w3.org/2000/svg"
   xmlns="http://www.w3.org/2000/svg"
   xmlns:xlink="http://www.w3.org/1999/xlink"
   xmlns:sodipodi="http://sodipodi.sourceforge.net/DTD/sodipodi-0.dtd"
   xmlns:inkscape="http://www.inkscape.org/namespaces/inkscape"
   viewBox="0 0 32 32"
   version="1.1"
   id="svg16"
   sodipodi:docname="print.svg"
   inkscape:version="0.92.3 (2405546, 2018-03-11)">
  <metadata
     id="metadata22">
    <rdf:RDF>
      <cc:Work
         rdf:about="">
        <dc:format>image/svg+xml</dc:format>
        <dc:type
           rdf:resource="http://purl.org/dc/dcmitype/StillImage" />
        <dc:title></dc:title>
      </cc:Work>
    </rdf:RDF>
  </metadata>
  <defs
     id="defs20">
    <linearGradient
       gradientTransform="translate(-0.5,1)"
       inkscape:collect="always"
       xlink:href="#linearGradient846"
       id="linearGradient848"
       x1="11.5"
       y1="11"
       x2="11.5"
       y2="20.5"
       gradientUnits="userSpaceOnUse" />
    <linearGradient
       inkscape:collect="always"
       id="linearGradient846">
      <stop
         style="stop-color:#ffffff;stop-opacity:1;"
         offset="0"
         id="stop842" />
      <stop
         id="stop850"
         offset="0.08333334"
         style="stop-color:#ffffff;stop-opacity:0.05514706" />
      <stop
         style="stop-color:#ffffff;stop-opacity:0.24705882;"
         offset="1"
         id="stop852" />
      <stop
         style="stop-color:#ffffff;stop-opacity:0.48161766"
         offset="1"
         id="stop844" />
    </linearGradient>
  </defs>
  <sodipodi:namedview
     pagecolor="#ffffff"
     bordercolor="#666666"
     borderopacity="1"
     objecttolerance="10"
     gridtolerance="10"
     guidetolerance="10"
     inkscape:pageopacity="0"
     inkscape:pageshadow="2"
     inkscape:window-width="1366"
     inkscape:window-height="692"
     id="namedview18"
     showgrid="true"
     inkscape:snap-smooth-nodes="true"
     inkscape:zoom="10.429825"
     inkscape:cx="23.417103"
     inkscape:cy="13.824525"
     inkscape:window-x="0"
     inkscape:window-y="0"
     inkscape:window-maximized="1"
     inkscape:current-layer="svg16">
    <inkscape:grid
       type="xygrid"
       id="grid829"
       spacingx="0.5"
       spacingy="0.5"
       empspacing="2" />
  </sodipodi:namedview>
  <path
     d="m8 20v7h16v-7z"
     fill="#fff"
     fill-rule="evenodd"
     id="path2" />
  <path
     d="m7 20v7.142578c0 .474857.3825649.857422.8574219.857422h16.2851561c.474857 0 .857422-.382565.857422-.857422v-7.142578h-1v7h-16v-7z"
     fill="#808080"
     id="path4"
     style="stroke:none;fill:#98989d;fill-opacity:1" />
  <path
     d="m 3.4726661,10.5 c -0.6282872,0 -1.0014124,0.457459 -1,1 L 2.5,22 c 0.00144,0.553998 0.446,1 1,1 h 25 c 0.554,0 1.001442,-0.446002 1,-1 L 29.47267,11.5 c -0.0014,-0.553998 -0.421822,-1 -1,-1 H 26.5 v 3 c 0,0.554 -0.446,1 -1,1 h -19 c -0.554,0 -1,-0.446 -1,-1 v -3 z"
     id="path6"
     style="fill:#8e8e93;fill-opacity:1;stroke:#616165;stroke-opacity:1"
     inkscape:connector-curvature="0"
     sodipodi:nodetypes="sssssssscsssscs" />
  <path
     d="m 7,9.000125 c -0.554,0 -1,0.446 -1,1 V 12 c 0,0.554 0.446,1 1,1 h 18 c 0.554,0 1,-0.446 1,-1 v -1.999875 c 0,-0.554 -0.446,-1 -1,-1 h -5 -8 z"
     id="path8"
     style="fill:#0a84ff;fill-opacity:1"
     inkscape:connector-curvature="0"
     sodipodi:nodetypes="ssssssssccs" />
  <path
     d="m7.8574219 4.000125c-.473825.0312909-.8574219.3825649-.8574219.8574219v5.1425781 1h1v-1-5h4 8 4v5 1h1v-1-5.1425781c0-.474857-.383597-.826131-.857422-.8574219h-4.142578-8z"
     fill="#808080"
     id="path10"
     style="stroke:none;fill:#98989d;fill-opacity:1" />
  <path
     d="m8 5.000125v5 1h16v-1-5h-4-8z"
     fill="#fff"
     fill-rule="evenodd"
     id="path12" />
  <path
     d="m26 20h2v1h-2z"
     fill="#fff"
     id="path14" />
  <path
     style="opacity:1;fill:none;fill-opacity:1;stroke:url(#linearGradient848);stroke-width:1;stroke-miterlimit:4;stroke-dasharray:none;stroke-opacity:0.65808835"
     d="M 4 11.5 C 3.723 11.5 3.5 11.723 3.5 12 L 3.5 21.5 C 3.5 21.777 3.723 22 4 22 L 28 22 C 28.277 22 28.5 21.777 28.5 21.5 L 28.5 12 C 28.5 11.723 28.277 11.5 28 11.5 L 27.5 11.5 L 27.5 14.5 C 27.5 15.054 27.054 15.5 26.5 15.5 L 5.5 15.5 C 4.946 15.5 4.5 15.054 4.5 14.5 L 4.5 11.5 L 4 11.5 z "
     id="rect838" />
</svg>
